X: 10721
T: Doyle's Castle
R: jig
M: 6/8
K: Gmajor
D|:GBG EDC|B,CD G2A|~B3 cAF|GBG AFD|
GFG EDC|B,CD G2 A|~B3 cAF|AGF G2 D:|
GBd gdB|cde d2c|~B3 cAF|GBG AFD|
GBd gdB|cde d2c|~B3 cAF|AGF G2D:|

